dist/intermediate-svg/amd.svg

<?xml version="1.0" encoding="utf-8"?><svg width="12" height="12" fill="none" xmlns="http://www.w3.org/2000/svg" viewBox="0 0 12 12"><path fill-rule="evenodd" clip-rule="evenodd" d="M3.00375 2.65529C3.48369 1.94948 4.28951 1.40002 5.4999 1.40002C6.7103 1.40002 7.51611 1.94948 7.99606 2.65529C8.45427 3.32912 8.5999 4.11655 8.5999 4.64708V11H7.3999V4.64708C7.3999 4.29526 7.29554 3.75916 7.00375 3.33006C6.73369 2.93292 6.28951 2.60002 5.4999 2.60002C4.7103 2.60002 4.26611 2.93292 3.99606 3.33006C3.70427 3.75916 3.5999 4.29526 3.5999 4.64708H2.3999C2.3999 4.11655 2.54554 3.32912 3.00375 2.65529Z" fill="#333"/><path fill-rule="evenodd" clip-rule="evenodd" d="M10 6.5H6V5.5H10V6.5zM10 8.5H6V7.5H10V8.5z" fill="#333"/></svg>

<?xml version="1.0" encoding="utf-8"?><svg width="12" height="12" fill="none" xmlns="http://www.w3.org/2000/svg" viewBox="0 0 12 12"><path fill-rule="evenodd" clip-rule="evenodd" d="M3.004 2.655C3.484 1.95 4.29 1.4 5.5 1.4s2.016.55 2.496 1.255c.458.674.604 1.462.604 1.992V11H7.4V4.647c0-.352-.104-.888-.396-1.317-.27-.397-.714-.73-1.504-.73s-1.234.333-1.504.73c-.292.43-.396.965-.396 1.317H2.4c0-.53.146-1.318.604-1.992z" fill="#333"/><path fill-rule="evenodd" clip-rule="evenodd" d="M10 6.5H6v-1h4v1zM10 8.5H6v-1h4v1z" fill="#333"/></svg>
